Origami/64x64/apps/civilization5.svg

<svg width="64" height="64" version="1" xmlns="http://www.w3.org/2000/svg">
 <path d="M 4,5 20,61 44,61 60,5 59.43,5 44,59 20,59 4.5704,5 4,5 Z" style="opacity:.2"/>
 <path d="m4 4 16 56h24l16-56h-16l-12 44-12-44z" style="fill:#fecd38"/>
 <path d="m4 4 16 56h15.4l-15.4-56z" style="fill:#ffffff;opacity:.2"/>
 <path d="m4 4l0.2851562 1h15.714844l12 44 12-44h15.714844l0.285156-1h-16l-12 44-12-44h-16z" style="fill:#ffffff;opacity:.2"/>
</svg>

<svg xmlns="http://www.w3.org/2000/svg" width="64" height="64" version="1">
 <path style="opacity:0.2" d="M 4,5 20,61 44,61 60,5 59.43,5 44,59 20,59 4.5704,5 4,5 Z"/>
 <path style="fill:#fecd38" d="M 4,4 20,60 44,60 60,4 44,4 32,48 20,4 Z"/>
 <path style="opacity:0.2;fill:#ffffff" d="M 4,4 20,60 35.4,60 20,4 Z"/>
 <path style="opacity:0.2;fill:#ffffff" d="M 4 4 L 4.2851562 5 L 20 5 L 32 49 L 44 5 L 59.714844 5 L 60 4 L 44 4 L 32 48 L 20 4 L 4 4 z"/>
</svg>
